img/service-pay__02.svg

<svg width="40" height="40" viewBox="0 0 40 40" fill="none" xmlns="http://www.w3.org/2000/svg">
<path d="M38.9382 13.7262L26.2721 1.06023C25.5884 0.376562 24.6766 0 23.7045 0C22.7326 0 21.8207 0.376406 21.137 1.06008L1.06023 21.1369C0.376563 21.8206 0 22.7323 0 23.7044C0 24.6764 0.376563 25.5883 1.06023 26.2719L2.62211 27.8337C2.62227 27.8338 2.62234 27.834 2.6225 27.8341C2.62266 27.8343 2.62281 27.8345 2.62297 27.8346L13.1198 38.3315H11.6664C11.2063 38.3315 10.8331 38.7045 10.8331 39.1648C10.8331 39.6249 11.2063 39.998 11.6664 39.998H16.2905C16.2916 39.998 16.2927 39.9981 16.2938 39.9981C16.2948 39.9981 16.2959 39.998 16.297 39.998L28.3323 39.9982C28.7925 39.9982 29.1656 39.6251 29.1656 39.1649C29.1656 38.7047 28.7925 38.3316 28.3323 38.3316L19.468 38.3315L38.9383 18.8612C40.3539 17.4454 40.3539 15.1418 38.9382 13.7262ZM37.7598 17.6827L17.6829 37.7596C17.3147 38.1277 16.8225 38.3307 16.2968 38.3315H16.2905C15.7649 38.3306 15.2729 38.1277 14.9048 37.7596L4.39023 27.2449L23.6711 7.96391C23.9965 7.63852 23.9965 7.11086 23.6711 6.78547C23.3456 6.46008 22.8181 6.46008 22.4926 6.78555L3.21172 26.0666L2.23859 25.0934C1.86977 24.7246 1.66664 24.2313 1.66664 23.7045C1.66664 23.1776 1.86977 22.6842 2.23867 22.3153L22.3154 2.23859C22.6843 1.86977 23.1777 1.66664 23.7045 1.66664C24.2314 1.66664 24.7248 1.86977 25.0937 2.23867L29.6017 6.74664L10.3206 26.0279C9.99524 26.3532 9.99524 26.8809 10.3206 27.2064C10.4834 27.3691 10.6966 27.4504 10.9098 27.4504C11.123 27.4504 11.3363 27.369 11.4991 27.2063L30.7802 7.92516L37.7598 14.9045C38.5256 15.6705 38.5256 16.9168 37.7598 17.6827Z" fill="#F04E23"/>
<path d="M20.5297 24.0663C20.2043 23.7409 19.6768 23.741 19.3512 24.0663L12.7938 30.6235C12.4685 30.9489 12.4685 31.4765 12.7938 31.8021C12.9566 31.9648 13.1699 32.0461 13.3831 32.0461C13.5963 32.0461 13.8096 31.9647 13.9723 31.8021L20.5296 25.2448C20.8551 24.9192 20.8551 24.3917 20.5297 24.0663Z" fill="#F04E23"/>
<path d="M17.8388 30.291L15.1493 32.9804C14.8239 33.3058 14.8239 33.8335 15.1493 34.1589C15.3121 34.3216 15.5253 34.403 15.7385 34.403C15.9519 34.403 16.165 34.3216 16.3278 34.1589L19.0172 31.4695C19.3426 31.1441 19.3426 30.6164 19.0172 30.291C18.6918 29.9655 18.1644 29.9655 17.8388 30.291Z" fill="#F04E23"/>
<path d="M20.3125 27.8163L19.959 28.1697C19.6335 28.4951 19.6335 29.0227 19.9589 29.3482C20.1215 29.5109 20.3349 29.5924 20.5481 29.5924C20.7613 29.5924 20.9746 29.5109 21.1372 29.3482L21.4908 28.9948C21.8162 28.6694 21.8162 28.1418 21.4908 27.8163C21.1656 27.491 20.6379 27.4909 20.3125 27.8163Z" fill="#F04E23"/>
<path d="M31.8057 12.7948C31.6495 12.6386 31.4375 12.5508 31.2165 12.5508C30.9955 12.5508 30.7836 12.6386 30.6273 12.7948L27.0917 16.3303C26.9355 16.4866 26.8477 16.6985 26.8477 16.9195C26.8477 17.1405 26.9355 17.3525 27.0917 17.5088L29.4487 19.8655C29.6115 20.0283 29.8248 20.1096 30.038 20.1096C30.2513 20.1096 30.4645 20.0282 30.6272 19.8655L34.1626 16.3302C34.488 16.0048 34.488 15.4772 34.1626 15.1518L31.8057 12.7948ZM30.0379 18.098L28.8594 16.9195L31.2164 14.5626L32.3948 15.7411L30.0379 18.098Z" fill="#F04E23"/>
<path d="M25.0286 6.26244C25.242 6.26244 25.4552 6.18104 25.6179 6.01822L25.9714 5.66455C26.2967 5.33908 26.2966 4.81143 25.9712 4.48611C25.6458 4.1608 25.1181 4.16088 24.7928 4.48635L24.4392 4.84002C24.1139 5.16549 24.114 5.69315 24.4395 6.01846C24.6022 6.18119 24.8153 6.26244 25.0286 6.26244Z" fill="#F04E23"/>
<path d="M8.3749 27.9726L8.02139 28.3261C7.696 28.6514 7.696 29.1791 8.02139 29.5046C8.18412 29.6673 8.3974 29.7486 8.61061 29.7486C8.82381 29.7486 9.03709 29.6673 9.19983 29.5046L9.55334 29.1511C9.87873 28.8257 9.87873 28.298 9.55334 27.9726C9.22787 27.6471 8.70037 27.6471 8.3749 27.9726Z" fill="#F04E23"/>
</svg>

<svg width="40" height="40" fill="none" xmlns="http://www.w3.org/2000/svg"><path d="M38.938 13.726L26.272 1.06A3.606 3.606 0 0023.705 0c-.972 0-1.884.376-2.568 1.06L1.06 21.137A3.606 3.606 0 000 23.704a3.61 3.61 0 001.06 2.568l1.562 1.562h.001L13.12 38.332h-1.454a.833.833 0 000 1.667h16.666a.833.833 0 000-1.666h-8.864l19.47-19.47a3.635 3.635 0 000-5.136zm-1.178 3.957L17.683 37.76a1.95 1.95 0 01-1.386.572h-.006a1.95 1.95 0 01-1.386-.572L4.39 27.245 23.671 7.964a.833.833 0 10-1.178-1.178L3.212 26.066l-.973-.973a1.95 1.95 0 01-.572-1.389c0-.526.203-1.02.572-1.389L22.315 2.24a1.95 1.95 0 011.39-.572c.526 0 1.02.203 1.389.572l4.508 4.508-19.281 19.28a.833.833 0 001.178 1.18L30.78 7.924l6.98 6.98a1.967 1.967 0 010 2.778z" fill="#F04E23"/><path d="M20.53 24.066a.833.833 0 00-1.179 0l-6.557 6.558a.834.834 0 001.178 1.178l6.558-6.557a.833.833 0 000-1.179zm-2.691 6.225l-2.69 2.69a.833.833 0 001.179 1.178l2.69-2.69a.833.833 0 00-1.18-1.178zm2.474-2.475l-.354.354a.833.833 0 001.178 1.178l.354-.353a.833.833 0 00-1.178-1.179zm11.493-15.021a.833.833 0 00-1.179 0l-3.535 3.535a.834.834 0 000 1.179l2.357 2.357a.83.83 0 001.178 0l3.536-3.536a.833.833 0 000-1.178l-2.357-2.357zm-1.768 5.303l-1.179-1.178 2.357-2.357 1.179 1.178-2.357 2.357zM25.029 6.262a.83.83 0 00.589-.244l.353-.353a.833.833 0 00-1.178-1.179l-.354.354a.833.833 0 00.59 1.422zM8.375 27.973l-.354.353A.833.833 0 009.2 29.505l.353-.354a.833.833 0 00-1.178-1.178z" fill="#F04E23"/></svg>
